openframe-frontend-core/src/components/icons-v2/brand-logos/github-logo.svg

<svg width="24" height="24" viewBox="0 0 24 24" fill="none" xmlns="http://www.w3.org/2000/svg">
<path d="M12 2C6.33526 2 1.74707 6.58819 1.74707 12.2529C1.74707 16.7899 4.68197 20.6219 8.75752 21.9804C9.27016 22.0701 9.46241 21.7625 9.46241 21.4934C9.46241 21.2499 9.44959 20.4425 9.44959 19.5838C6.87354 20.058 6.2071 18.9558 6.00204 18.3791C5.88669 18.0843 5.38686 17.1743 4.95111 16.9308C4.59226 16.7386 4.07961 16.2644 4.9383 16.2516C5.74572 16.2388 6.32244 16.9949 6.51469 17.3025C7.43745 18.8533 8.91131 18.4175 9.50085 18.1484C9.59057 17.4819 9.85971 17.0334 10.1545 16.777C7.8732 16.5207 5.48939 15.6364 5.48939 11.7147C5.48939 10.5997 5.88669 9.67689 6.54032 8.95918C6.43779 8.70286 6.07894 7.65193 6.64285 6.24215C6.64285 6.24215 7.50153 5.97301 9.46241 7.29308C10.2826 7.06239 11.1541 6.94704 12.0256 6.94704C12.8971 6.94704 13.7686 7.06239 14.5889 7.29308C16.5498 5.9602 17.4084 6.24215 17.4084 6.24215C17.9723 7.65193 17.6135 8.70286 17.511 8.95918C18.1646 9.67689 18.5619 10.5868 18.5619 11.7147C18.5619 15.6492 16.1653 16.5207 13.884 16.777C14.2557 17.0975 14.5761 17.7126 14.5761 18.6738C14.5761 20.0452 14.5632 21.1474 14.5632 21.4934C14.5632 21.7625 14.7555 22.0829 15.2681 21.9804C17.3035 21.2932 19.0721 19.9851 20.3251 18.2401C21.5781 16.4951 22.2523 14.4012 22.2529 12.2529C22.2529 6.58819 17.6648 2 12 2Z" fill="#5569C0"/>
</svg>

<svg xmlns="http://www.w3.org/2000/svg" width="24" height="24" fill="none" viewBox="0 0 24 24">
  <path fill="#888" d="M12 2A10.25 10.25 0 0 0 1.747 12.253c0 4.537 2.935 8.369 7.01 9.727.513.09.705-.218.705-.487 0-.243-.012-1.05-.012-1.91-2.576.475-3.243-.627-3.448-1.204-.115-.295-.615-1.205-1.05-1.448-.36-.192-.872-.667-.014-.68.808-.012 1.384.744 1.577 1.051.922 1.551 2.396 1.116 2.986.846.09-.666.359-1.115.654-1.371-2.282-.256-4.666-1.14-4.666-5.062 0-1.115.398-2.038 1.051-2.756-.102-.256-.461-1.307.103-2.717 0 0 .859-.269 2.82 1.051a9.513 9.513 0 0 1 2.563-.346c.871 0 1.743.115 2.563.346 1.96-1.333 2.82-1.05 2.82-1.05.563 1.409.204 2.46.102 2.716.654.718 1.05 1.628 1.05 2.756 0 3.934-2.396 4.806-4.677 5.062.372.32.692.936.692 1.897 0 1.371-.013 2.473-.013 2.82 0 .268.192.589.705.486a10.27 10.27 0 0 0 6.985-9.727A10.25 10.25 0 0 0 12 2Z"/>
</svg>
